app/dist/common/images/princeton-bancorp.svg

<svg height="18" viewBox="0 0 18 18" width="18" xmlns="http://www.w3.org/2000/svg"><path d="m0 0h18v18h-18z" fill="#f0f3fa"/><g fill-rule="evenodd"><path d="m12 4h-6v10h6zm-7-1v12h8v-12z" fill="#f3721c"/><path d="m9.54 4.26h-2.54v2.74h-.55v.42h.23c.32.03.32.3.32.48v4.95c0 .43-.12.56-.28.57h-.27v.32h2.15v-.32h-.33c-.26 0-.27-.4-.26-.57v-1.85h1.42c.55-.03 2.06-.48 2.06-1.95 0-1.19-1.19-1.73-1.79-1.86.5-.14 1.5-.7 1.55-1.7.06-1.02-1.11-1.24-1.7-1.23zm-.47.32h-1.07v2.42h1.07c.23-.02 1.15-.28 1.14-1.33 0-.83-.76-1.08-1.14-1.1zm-1.07 3.42c0-.19.35-.55.76-.56.5-.01 1.74.57 1.71 1.81-.02 1-.77 1.3-1.14 1.33-.36.02-1.33-.12-1.33-.8z"/></g></svg>

<!-- by TradingView --><svg width="18" height="18" viewBox="0 0 18 18" xmlns="http://www.w3.org/2000/svg"><path fill="#F0F3FA" d="M0 0h18v18H0z"/><path fill-rule="evenodd" d="M12 4H6v10h6V4ZM5 3v12h8V3H5Z" fill="#F3721C"/><path fill-rule="evenodd" d="M9.54 4.26H7V7h-.55v.42h.23c.32.03.32.3.32.48V12.85c0 .43-.12.56-.28.57h-.27v.32H8.6v-.32h-.33c-.26 0-.27-.4-.26-.57V11h1.42c.55-.03 2.06-.48 2.06-1.95 0-1.19-1.19-1.73-1.79-1.86.5-.14 1.5-.7 1.55-1.7.06-1.02-1.11-1.24-1.7-1.23Zm-.47.32H8V7h1.07c.23-.02 1.15-.28 1.14-1.33 0-.83-.76-1.08-1.14-1.1ZM8 8c0-.19.35-.55.76-.56.5-.01 1.74.57 1.71 1.81-.02 1-.77 1.3-1.14 1.33-.36.02-1.33-.12-1.33-.8V8Z"/></svg>
